!!!COM: Bach, Johann Sebastian
!!!OTL@@DE: 281. Wo soll ich fliehen hin
!!!OTL@EN: Whither am I to flee?
!!!SCA: BWV 89.6
**harm	**root	**kern	**kern	**kern	**kern
*staff2	*	*staff2	*staff2	*staff1	*staff1
*Iorgan	*Iorgan	*Iorgan	*Iorgan	*Iorgan	*Iorgan
!	!	!bass	!tenor	!alto	!sprno
*	*	*clefF4	*clefF4	*clefG2	*clefG2
*k[b-e-a-]	*k[b-e-a-]	*k[b-e-a-]	*k[b-e-a-]	*k[b-e-a-]	*k[b-e-a-]
*c:	*c:	*c:	*c:	*c:	*c:
*met(c)	*met(c)	*met(c)	*met(c)	*met(c)	*met(c)
*M4/4	*M4/4	*M4/4	*M4/4	*M4/4	*M4/4
*MM60	*MM60	*MM60	*MM60	*MM60	*MM60
i	4GG	4C	4e-	4g	4cc
=1	=1	=1	=1	=1	=1
i	4GG	4c	4e-	4g	4cc
V	4DD	4B	4d	4g	4dd
i	4GG	4c	8cL	4g	4ee-
.	.	.	8e-J	.	.
ivb	4CC	4A-	4a-	4cc	4ff
=2	=2	=2	=2	=2	=2
V;	2.DD;	2.G;	2.d;	2.b;	2.gg;
V7c	4DD	4F	4d	4b	4gg
=3	=3	=3	=3	=3	=3
ib	4GG	4E-	4e-	4cc	4gg
viiob	4FF#	4D	4f	8ccL	4ff
.	.	.	.	8bJ	.
i	4GG	4C	4g	4cc	4ee-
iiob	4AA	4F	4a-	4dd	4ff
=4	=4	=4	=4	=4	=4
V;	2.DD;	2.G;	2.g;	2.b-;	2.dd#;
*E-:	*E-:	*E-:	*E-:	*E-:	*E-:
V/VI	4DD	4G	4g	4b-	4dd#
=5	=5	=5	=5	=5	=5
vi	4GG	4c	4g	4cc	4ee-
V	4FF	4B-	4b-	4dd	4ff
I	4BB-	8e-L	4b-	4ee-	4gg
.	.	8d	.	.	.
vi	4GG	8c	4cc	4ee-	4gg
.	.	8B-J	.	.	.
=6	=6	=6	=6	=6	=6
iv7b	4EE-	4A-	4cc	4ee-	2ff
V	4FF	4B-	4b-	4dd	.
I;	4BB-;	4E-;	4b-;	4ee-;	4gg;
Vb/VI	4DD	4B	4g	4dd	4gg
=7	=7	=7	=7	=7	=7
!!linebreak: 2
vi	4GG	(4c	4g	4cc	4ee-
V	4FF	8B-L	4b-	8ddL	4ff
.	.	8A-J)	.	8ccJ	.
Ib	4BB-	8GL	4e-	4b-	4gg
.	.	8F	.	.	.
I	4BB-	8E-	4e-	4b-	4gg
.	.	8GJ	.	.	.
=8	=8	=8	=8	=8	=8
ii7	4CC	8A-L	4e-	4cc	2ff
.	.	8FJ	.	.	.
V	4FF	4B-	4d	4b-	.
I;	4BB-;	4E-;	4g;	4b-;	4ee-;
I	4BB-	4e-	4b-	4ee-	4gg
=9	=9	=9	=9	=9	=9
Vb	4FF	4d	4b-	4ff	4bb-
I	4BB-	4e-	8b-L	4ee-	4gg
.	.	.	8ccJ	.	.
Vb/VI	4DD	4B	8ddL	4dd	4gg
.	.	.	8dJ	.	.
vi	4GG	4c	4e-	4cc	4gg
=10	=10	=10	=10	=10	=10
V7b/V	4CC	4A	4e-	4cc	2ff
Vc	8FF	4F	8dL	8b-L	.
V/V	8CC	.	8cJ	8aJ	.
V;	4FF;	4B-;	4d;	4b-;	4ff;
*c:	*c:	*c:	*c:	*c:	*c:
ivb	4CC	4A-	4c	4cc	4ff
=11	=11	=11	=11	=11	=11
V	4DD	8GL	4d	4b	4gg
.	.	8FJ	.	.	.
V7c	4DD	8E-L	4g	4b	4ff
.	.	8DJ	.	.	.
i	4GG	8CL	4g	4cc	4ee-
.	.	8B-J	.	.	.
ivb	8CC	8A-L	8fL	4cc	8ffL
ic	8GG	8GJ	8gJ	.	8ee-J
=12	=12	=12	=12	=12	=12
iio7	4AA	4F	4a-	4cc	2dd
V7	4DD	4G	8gL	4b	.
.	.	.	8fJ	.	.
I;	4GG;	4C;	4e;	4g;	4cc;
==	==	==	==	==	==
*-	*-	*-	*-	*-	*-
!!!ENC: Craig Stuart Sapp
!!!END: 2004/12/06/
!!chor2scor: -l 2 -s 0.6 -o %b.pmx
